components/Icon/icons/arrowPrev.svg

<svg width="50" height="50" viewBox="0 0 50 50" fill="none" xmlns="http://www.w3.org/2000/svg">
<path d="M19 36.72L18.82 36.9325C18.5021 37.2503 18.0805 37.4433 17.6322 37.4764C17.1839 37.5094 16.7386 37.3803 16.3775 37.1125L16.1675 36.9325L5.56 26.325C5.24218 26.0071 5.04916 25.5855 5.01612 25.1372C4.98308 24.6888 5.11221 24.2436 5.38 23.8825L5.56 23.6725L16.1675 13.0675C16.5025 12.7351 16.9505 12.5412 17.4222 12.5246C17.8938 12.508 18.3543 12.6699 18.7119 12.9779C19.0694 13.2859 19.2977 13.7174 19.3511 14.1863C19.4045 14.6552 19.2791 15.127 19 15.5075L18.82 15.7175L11.415 23.125L43.125 23.125C43.5781 23.125 44.0159 23.2891 44.3573 23.5869C44.6988 23.8847 44.9209 24.2961 44.9825 24.745L45 24.9975C45.0006 25.451 44.8368 25.8894 44.5389 26.2314C44.241 26.5734 43.8293 26.7958 43.38 26.8575L43.125 26.875L11.415 26.875L18.82 34.28C19.1372 34.5978 19.3298 35.0188 19.3628 35.4666C19.3958 35.9143 19.2671 36.3591 19 36.72L18.82 36.9325L19 36.72Z" fill="black"/>
</svg>

<svg xmlns="http://www.w3.org/2000/svg" viewBox="0 0 50 50" width="100%" height="100%" fill="currentColor" xmlns:v="https://vecta.io/nano"><path d="M19 36.72l-.18.212c-.318.318-.739.511-1.188.544s-.894-.096-1.255-.364l-.21-.18L5.56 26.325c-.318-.318-.511-.739-.544-1.188s.096-.894.364-1.255l.18-.21 10.608-10.605c.335-.332.783-.526 1.255-.543s.932.145 1.29.453.586.739.639 1.208-.072.941-.351 1.321l-.18.21-7.405 7.408h31.71c.453 0 .891.164 1.232.462s.564.709.625 1.158l.017.252c.001.454-.163.892-.461 1.234s-.71.564-1.159.626l-.255.017h-31.71l7.405 7.405c.317.318.51.739.543 1.187s-.096.892-.363 1.253l-.18.212.18-.212z" fill="#000"/></svg>
